static/cards/FrenchDeck/default/card_diamonds_09.svg

<svg width="219" height="304" viewBox="0 0 219 304" fill="none" xmlns="http://www.w3.org/2000/svg">
<g filter="url(#filter0_d_18_672)">
<g clip-path="url(#clip0_18_672)">
<rect x="8" y="4" width="203" height="288" rx="10" fill="white"/>
<path d="M16.9517 39.936C16.9517 39.0352 17.5723 38.4546 18.4331 38.4546C18.9736 38.4546 19.394 38.6948 20.1348 39.4155C21.5962 40.8569 23.0776 41.5176 24.9194 41.5176C29.4438 41.5176 31.7461 37.3735 31.7461 30.1665H31.5659C30.5649 32.8691 28.0024 34.4907 24.7393 34.4907C19.6143 34.4907 16.0508 30.7271 16.0508 25.3218C16.0508 19.7563 19.8345 16.0527 25.52 16.0527C31.7861 16.0527 35.1294 20.9375 35.1294 30.0063C35.1294 39.5557 31.666 44.5205 24.9795 44.5205C22.7773 44.5205 20.6953 43.96 19.1338 42.939C17.7925 42.0581 16.9517 40.937 16.9517 39.936ZM31.1455 25.4019C31.1455 21.6582 28.7832 19.0957 25.3198 19.0957C21.8765 19.0957 19.5142 21.6582 19.5142 25.3818C19.5142 29.0254 21.8364 31.4678 25.3198 31.4678C28.8232 31.4678 31.1455 29.0454 31.1455 25.4019Z" fill="#BC1E24"/>
<path d="M26.1801 52.104C26.1038 51.9653 25.8962 51.9653 25.8199 52.104C23.5263 56.2724 21.8722 58.4782 18.5553 61.8648C18.4816 61.9401 18.4816 62.0599 18.5553 62.1352C21.8722 65.5218 23.5263 67.7276 25.8199 71.896C25.8962 72.0347 26.1038 72.0347 26.1801 71.896C28.4737 67.7276 30.1278 65.5218 33.4447 62.1352C33.5184 62.0599 33.5184 61.9401 33.4447 61.8648C30.1278 58.4782 28.4737 56.2724 26.1801 52.104Z" fill="#BC1E24"/>
<path d="M202.048 256.064C202.048 256.965 201.428 257.545 200.567 257.545C200.026 257.545 199.606 257.305 198.865 256.584C197.404 255.143 195.922 254.482 194.081 254.482C189.556 254.482 187.254 258.626 187.254 265.833L187.434 265.833C188.435 263.131 190.998 261.509 194.261 261.509C199.386 261.509 202.949 265.273 202.949 270.678C202.949 276.244 199.166 279.947 193.48 279.947C187.214 279.947 183.871 275.062 183.871 265.994C183.871 256.444 187.334 251.479 194.021 251.479C196.223 251.479 198.305 252.04 199.866 253.061C201.208 253.942 202.048 255.063 202.048 256.064ZM187.854 270.598C187.854 274.342 190.217 276.904 193.68 276.904C197.124 276.904 199.486 274.342 199.486 270.618C199.486 266.975 197.164 264.532 193.68 264.532C190.177 264.532 187.854 266.955 187.854 270.598Z" fill="#BC1E24"/>
<path d="M192.82 243.896C192.896 244.035 193.104 244.035 193.18 243.896C195.474 239.728 197.128 237.522 200.445 234.135C200.518 234.06 200.518 233.94 200.445 233.865C197.128 230.478 195.474 228.272 193.18 224.104C193.104 223.965 192.896 223.965 192.82 224.104C190.526 228.272 188.872 230.478 185.555 233.865C185.482 233.94 185.482 234.06 185.555 234.135C188.872 237.522 190.526 239.728 192.82 243.896Z" fill="#BC1E24"/>
<path d="M65.9501 27.2599C65.7594 26.9134 65.2406 26.9134 65.0499 27.2599C59.3158 37.6809 55.1805 43.1955 46.8882 51.6621C46.7039 51.8503 46.7039 52.1498 46.8882 52.338C55.1805 60.8045 59.3158 66.3191 65.0499 76.7401C65.2406 77.0866 65.7594 77.0866 65.9501 76.7401C71.6842 66.3191 75.8195 60.8045 84.1118 52.338C84.2961 52.1498 84.2961 51.8503 84.1118 51.6621C75.8195 43.1955 71.6842 37.6809 65.9501 27.2599Z" fill="#BC1E24"/>
<path d="M65.9501 219.26C65.7594 218.913 65.2406 218.913 65.0499 219.26C59.3158 229.681 55.1805 235.196 46.8882 243.662C46.7039 243.85 46.7039 244.15 46.8882 244.338C55.1805 252.804 59.3158 258.319 65.0499 268.74C65.2406 269.087 65.7594 269.087 65.9501 268.74C71.6842 258.319 75.8195 252.804 84.1118 244.338C84.2961 244.15 84.2961 243.85 84.1118 243.662C75.8195 235.196 71.6842 229.681 65.9501 219.26Z" fill="#BC1E24"/>
<path d="M153.95 27.2599C153.759 26.9134 153.241 26.9134 153.05 27.2599C147.316 37.6809 143.181 43.1955 134.888 51.6621C134.704 51.8503 134.704 52.1498 134.888 52.338C143.181 60.8045 147.316 66.3191 153.05 76.7401C153.241 77.0866 153.759 77.0866 153.95 76.7401C159.684 66.3191 163.819 60.8045 172.112 52.338C172.296 52.1498 172.296 51.8503 172.112 51.6621C163.819 43.1955 159.684 37.6809 153.95 27.2599Z" fill="#BC1E24"/>
<path d="M65.9501 91.2599C65.7594 90.9134 65.2406 90.9134 65.0499 91.2599C59.3158 101.681 55.1805 107.196 46.8882 115.662C46.7039 115.85 46.7039 116.15 46.8882 116.338C55.1805 124.804 59.3158 130.319 65.0499 140.74C65.2406 141.087 65.7594 141.087 65.9501 140.74C71.6842 130.319 75.8195 124.804 84.1118 116.338C84.2961 116.15 84.2961 115.85 84.1118 115.662C75.8195 107.196 71.6842 101.681 65.9501 91.2599Z" fill="#BC1E24"/>
<path d="M65.9501 155.26C65.7594 154.913 65.2406 154.913 65.0499 155.26C59.3158 165.681 55.1805 171.196 46.8882 179.662C46.7039 179.85 46.7039 180.15 46.8882 180.338C55.1805 188.804 59.3158 194.319 65.0499 204.74C65.2406 205.087 65.7594 205.087 65.9501 204.74C71.6842 194.319 75.8195 188.804 84.1118 180.338C84.2961 180.15 84.2961 179.85 84.1118 179.662C75.8195 171.196 71.6842 165.681 65.9501 155.26Z" fill="#BC1E24"/>
<path d="M153.95 91.2599C153.759 90.9134 153.241 90.9134 153.05 91.2599C147.316 101.681 143.181 107.196 134.888 115.662C134.704 115.85 134.704 116.15 134.888 116.338C143.181 124.804 147.316 130.319 153.05 140.74C153.241 141.087 153.759 141.087 153.95 140.74C159.684 130.319 163.819 124.804 172.112 116.338C172.296 116.15 172.296 115.85 172.112 115.662C163.819 107.196 159.684 101.681 153.95 91.2599Z" fill="#BC1E24"/>
<path d="M109.95 123.26C109.759 122.913 109.241 122.913 109.05 123.26C103.316 133.681 99.1805 139.196 90.8882 147.662C90.7039 147.85 90.7039 148.15 90.8882 148.338C99.1805 156.804 103.316 162.319 109.05 172.74C109.241 173.087 109.759 173.087 109.95 172.74C115.684 162.319 119.819 156.804 128.112 148.338C128.296 148.15 128.296 147.85 128.112 147.662C119.819 139.196 115.684 133.681 109.95 123.26Z" fill="#BC1E24"/>
<path d="M153.95 155.26C153.759 154.913 153.241 154.913 153.05 155.26C147.316 165.681 143.181 171.196 134.888 179.662C134.704 179.85 134.704 180.15 134.888 180.338C143.181 188.804 147.316 194.319 153.05 204.74C153.241 205.087 153.759 205.087 153.95 204.74C159.684 194.319 163.819 188.804 172.112 180.338C172.296 180.15 172.296 179.85 172.112 179.662C163.819 171.196 159.684 165.681 153.95 155.26Z" fill="#BC1E24"/>
<path d="M153.95 219.26C153.759 218.913 153.241 218.913 153.05 219.26C147.316 229.681 143.181 235.196 134.888 243.662C134.704 243.85 134.704 244.15 134.888 244.338C143.181 252.804 147.316 258.319 153.05 268.74C153.241 269.087 153.759 269.087 153.95 268.74C159.684 258.319 163.819 252.804 172.112 244.338C172.296 244.15 172.296 243.85 172.112 243.662C163.819 235.196 159.684 229.681 153.95 219.26Z" fill="#BC1E24"/>
</g>
</g>
<defs>
<filter id="filter0_d_18_672" x="0" y="0" width="219" height="304" filterUnits="userSpaceOnUse" color-interpolation-filters="sRGB">
<feFlood flood-opacity="0" result="BackgroundImageFix"/>
<feColorMatrix in="SourceAlpha" type="matrix" values="0 0 0 0 0 0 0 0 0 0 0 0 0 0 0 0 0 0 127 0" result="hardAlpha"/>
<feOffset dy="4"/>
<feGaussianBlur stdDeviation="4"/>
<feComposite in2="hardAlpha" operator="out"/>
<feColorMatrix type="matrix" values="0 0 0 0 0.614771 0 0 0 0 0.70094 0 0 0 0 0.806257 0 0 0 1 0"/>
<feBlend mode="normal" in2="BackgroundImageFix" result="effect1_dropShadow_18_672"/>
<feBlend mode="normal" in="SourceGraphic" in2="effect1_dropShadow_18_672" result="shape"/>
</filter>
<clipPath id="clip0_18_672">
<rect x="8" y="4" width="203" height="288" rx="10" fill="white"/>
</clipPath>
</defs>
</svg>

<svg xmlns="http://www.w3.org/2000/svg" width="219" height="304" fill="none" viewBox="0 0 219 304"><g filter="url(#a)"><g clip-path="url(#b)"><rect width="203" height="288" x="8" y="4" fill="#fff" rx="10"/><path fill="#bc1e24" d="M16.952 39.936c0-.9.62-1.481 1.481-1.481.54 0 .961.24 1.702.96 1.461 1.442 2.943 2.103 4.784 2.103 4.525 0 6.827-4.145 6.827-11.352h-.18c-1.001 2.703-3.564 4.325-6.827 4.325-5.125 0-8.688-3.764-8.688-9.17 0-5.565 3.784-9.268 9.469-9.268 6.266 0 9.61 4.884 9.61 13.953 0 9.55-3.464 14.514-10.15 14.514-2.203 0-4.285-.56-5.846-1.581-1.341-.88-2.182-2.002-2.182-3.003m14.193-14.534c0-3.744-2.362-6.306-5.825-6.306-3.443 0-5.806 2.562-5.806 6.286 0 3.643 2.322 6.086 5.806 6.086 3.503 0 5.825-2.423 5.825-6.066M26.18 52.104a.208.208 0 0 0-.36 0c-2.294 4.168-3.948 6.374-7.265 9.76a.193.193 0 0 0 0 .271c3.317 3.387 4.971 5.593 7.265 9.761a.208.208 0 0 0 .36 0c2.294-4.168 3.948-6.374 7.265-9.76a.193.193 0 0 0 0-.271c-3.317-3.387-4.971-5.593-7.265-9.761M202.048 256.064c0 .901-.62 1.481-1.481 1.481-.541 0-.961-.24-1.702-.961-1.461-1.441-2.943-2.102-4.784-2.102-4.525 0-6.827 4.144-6.827 11.351h.18c1.001-2.702 3.564-4.324 6.827-4.324 5.125 0 8.688 3.764 8.688 9.169 0 5.566-3.783 9.269-9.469 9.269-6.266 0-9.609-4.885-9.609-13.953 0-9.55 3.463-14.515 10.15-14.515 2.202 0 4.284.561 5.845 1.582 1.342.881 2.182 2.002 2.182 3.003m-14.194 14.534c0 3.744 2.363 6.306 5.826 6.306 3.444 0 5.806-2.562 5.806-6.286 0-3.643-2.322-6.086-5.806-6.086-3.503 0-5.826 2.423-5.826 6.066M192.82 243.896a.208.208 0 0 0 .36 0c2.294-4.168 3.948-6.374 7.265-9.761a.194.194 0 0 0 0-.27c-3.317-3.387-4.971-5.593-7.265-9.761a.208.208 0 0 0-.36 0c-2.294 4.168-3.948 6.374-7.265 9.761a.194.194 0 0 0 0 .27c3.317 3.387 4.971 5.593 7.265 9.761M65.95 27.26a.52.52 0 0 0-.9 0c-5.734 10.42-9.87 15.936-18.162 24.402a.48.48 0 0 0 0 .676c8.293 8.466 12.428 13.981 18.162 24.402a.52.52 0 0 0 .9 0c5.734-10.42 9.87-15.935 18.162-24.402a.48.48 0 0 0 0-.676C75.82 43.196 71.684 37.681 65.95 27.26M65.95 219.26a.52.52 0 0 0-.9 0c-5.734 10.421-9.87 15.936-18.162 24.402a.48.48 0 0 0 0 .676c8.293 8.466 12.428 13.981 18.162 24.402a.52.52 0 0 0 .9 0c5.734-10.421 9.87-15.936 18.162-24.402a.48.48 0 0 0 0-.676c-8.292-8.466-12.428-13.981-18.162-24.402M153.95 27.26a.52.52 0 0 0-.9 0c-5.734 10.42-9.869 15.936-18.162 24.402a.483.483 0 0 0 0 .676c8.293 8.466 12.428 13.981 18.162 24.402a.52.52 0 0 0 .9 0c5.734-10.42 9.869-15.935 18.162-24.402a.483.483 0 0 0 0-.676c-8.293-8.466-12.428-13.981-18.162-24.402M65.95 91.26a.52.52 0 0 0-.9 0c-5.734 10.421-9.87 15.936-18.162 24.402a.48.48 0 0 0 0 .676c8.293 8.466 12.428 13.981 18.162 24.402a.52.52 0 0 0 .9 0c5.734-10.421 9.87-15.936 18.162-24.402a.48.48 0 0 0 0-.676c-8.292-8.466-12.428-13.981-18.162-24.402M65.95 155.26a.52.52 0 0 0-.9 0c-5.734 10.421-9.87 15.936-18.162 24.402a.48.48 0 0 0 0 .676c8.293 8.466 12.428 13.981 18.162 24.402a.52.52 0 0 0 .9 0c5.734-10.421 9.87-15.936 18.162-24.402a.48.48 0 0 0 0-.676c-8.292-8.466-12.428-13.981-18.162-24.402M153.95 91.26a.52.52 0 0 0-.9 0c-5.734 10.421-9.869 15.936-18.162 24.402a.483.483 0 0 0 0 .676c8.293 8.466 12.428 13.981 18.162 24.402a.52.52 0 0 0 .9 0c5.734-10.421 9.869-15.936 18.162-24.402a.483.483 0 0 0 0-.676c-8.293-8.466-12.428-13.981-18.162-24.402M109.95 123.26a.52.52 0 0 0-.9 0c-5.734 10.421-9.87 15.936-18.162 24.402a.48.48 0 0 0 0 .676c8.292 8.466 12.428 13.981 18.162 24.402a.52.52 0 0 0 .9 0c5.734-10.421 9.869-15.936 18.162-24.402a.483.483 0 0 0 0-.676c-8.293-8.466-12.428-13.981-18.162-24.402M153.95 155.26a.52.52 0 0 0-.9 0c-5.734 10.421-9.869 15.936-18.162 24.402a.483.483 0 0 0 0 .676c8.293 8.466 12.428 13.981 18.162 24.402a.52.52 0 0 0 .9 0c5.734-10.421 9.869-15.936 18.162-24.402a.483.483 0 0 0 0-.676c-8.293-8.466-12.428-13.981-18.162-24.402M153.95 219.26a.52.52 0 0 0-.9 0c-5.734 10.421-9.869 15.936-18.162 24.402a.483.483 0 0 0 0 .676c8.293 8.466 12.428 13.981 18.162 24.402a.52.52 0 0 0 .9 0c5.734-10.421 9.869-15.936 18.162-24.402a.483.483 0 0 0 0-.676c-8.293-8.466-12.428-13.981-18.162-24.402"/></g></g><defs><clipPath id="b"><rect width="203" height="288" x="8" y="4" fill="#fff" rx="10"/></clipPath><filter id="a" width="219" height="304" x="0" y="0" color-interpolation-filters="sRGB" filterUnits="userSpaceOnUse"><feFlood flood-opacity="0" result="BackgroundImageFix"/><feColorMatrix in="SourceAlpha" result="hardAlpha" values="0 0 0 0 0 0 0 0 0 0 0 0 0 0 0 0 0 0 127 0"/><feOffset dy="4"/><feGaussianBlur stdDeviation="4"/><feComposite in2="hardAlpha" operator="out"/><feColorMatrix values="0 0 0 0 0.614771 0 0 0 0 0.70094 0 0 0 0 0.806257 0 0 0 1 0"/><feBlend in2="BackgroundImageFix" result="effect1_dropShadow_18_672"/><feBlend in="SourceGraphic" in2="effect1_dropShadow_18_672" result="shape"/></filter></defs></svg>
